X:1
T:A Beautiful Life
T:A Beautiful Life
T:William M. Golden
T:William M. Golden, 1918
T:Public Domain Courtesy of the Cyber Hymnal™
T:Public Domain Courtesy of the Cyber Hymnal™
C:William M. Golden
Z:Public Domain
Z:Courtesy of the Cyber Hymnal™
%%score ( 1 2 ) ( 3 4 )
L:1/8
Q:1/4=100
M:4/4
K:C
V:1 treble 
V:2 treble 
V:3 bass 
V:4 bass 
V:1
 [Ec][Ge][Fd] | [Ec]4- [Ec][Fd][Ac][FA] | [EG]4- [EG][EG][DB][Ec] | [Fd]4- [Fd][Fd][Ec][Fd] | %4
w: 1.~Each day I’ll|do * a gold- en|deed, * By help- ing|those * who are in|
w: 2.~To be a|child * of God each|day, * My light must|shine * a- long the|
w: 3.~The on- ly|life * that will en-|dure, * Is one that’s|kind * and good and|
w: 4.~I’ll help some-|one * in time of|need, * And jour- ney|on * with ra- pid|
w: 5.~While go- ing|down * life’s wear- y|road, * I’ll try to|lift * some trav- eler’s|
 [Ge]4- [Ge][Ec][Ge][Fd] | [Ec]4- [Ec][Fd][Ac][FA] | [EG]4- [EG][EG][FA][Ac] | %7
w: need, * My life on|earth * is but a|span, * And so I’ll|
w: way; * I’ll sing His|praise * while ag- es|roll * And strive to|
w: pure; * And so for|God * I’ll take my|stand, * Each day I’ll|
w: speed; * I’ll help the|sick * and poor and|weak, * And words of|
w: load; * I’ll try to|turn * the night to|day, * Make flow- ers|
 [Ge]4- [Ge][Ec][Fd][Fd] | c4- [Ec] ||"^Refrain" z z2 | z [EG][FA][FA] [EG] z z2 | %11
w: do * the best I|can. *|||
w: help * some trou- bled|soul. Life’s||ev- ening sun is|
w: lend * a help- ing|hand. *|||
w: kind- * ness to them|speak. *|||
w: bloom * a- long the|way *|||
 z [FA][FA][FA] [FA] z z2 | z [DG][DG][DG] [DG] z z2 | z [EG][FA][FA] [EG][Ec][Ge][Fd] | %14
w: |||
w: sink- ing low, A|few more days and|I must go To meet the deeds|
w: |||
w: |||
w: |||
 [Ec]4- [Ec][Fd][Ac][FA] | [EG]4- [EG][EG][FA][Ac] | [Ge]4- [Ge][Ec][Fd][Fd] | c4- [Ec] |] %18
w: ||||
w: that * I have done,|Where * there will be|no * set- ting sun.||
w: ||||
w: ||||
w: ||||
V:2
 x3 | x8 | x8 | x8 | x8 | x8 | x8 | x8 | EEF^D x || x3 | x8 | x8 | x8 | x8 | x8 | x8 | x8 | %17
 E E F ^D x |] %18
V:3
 z3 | z ([C,G,][C,G,][C,G,] [C,G,]) z3 | z ([C,C][C,C][C,C] [C,C]) z3 | %3
w: |~ * * *|~ * * *|
 z ([G,B,][G,B,][G,B,] [G,B,]) z3 | z ([C,C][C,C][C,C] [C,C]) z3 | %5
w: ~ * * *|~ * * *|
 z ([C,G,][C,G,][C,G,] [C,G,]) z3 | z ([C,C][C,C][C,C] [C,C]) z3 | %7
w: ~ * * *|~ * * *|
 z ([G,C][G,C][G,C] [G,C])[A,C][G,B,][G,B,] | (CG,A,^F, [C,G,]) || C,E,D, | (z CCC [C,C])C,D,E, | %11
w: ~ * * * ~ ~ ~|~ * * * *|* Life’s even-|* * * * ing sun is|
 z CCC [F,C]D,E,F, | z B,B,B, [G,B,]G,,A,,B,, | z CCC [C,C] z3 | z [C,G,][C,G,][C,G,] [C,G,] z3 | %15
w: * * * * sink- ing low,|* * * * A few more||* days and I|
 z [C,C][C,C][C,C] [C,C] z3 | z [G,C][G,C][G,C] [G,C][A,C][G,B,][G,B,] | CG,A,^F, [C,G,] |] %18
w: must go To meet|the deeds that I * * *|* have done, * Where|
V:4
 x3 | x8 | x8 | x8 | x8 | x8 | x8 | x8 | C,4- x || x3 | C,4- x4 | F,4- x4 | G,4- x4 | C,4- x4 | %14
 x8 | x8 | x8 | C,4- x |] %18

